!!!COM: Bach, Johann Sebastian
!!!OPR: Joh. Seb. Bachs vierstimmige Choralges‰nge
!!!XEN: Four-part Chorales
!!!OTL: 36. Das alte Jahr vergangen ist
!!!SCT: BWV 289
!!!SCA: Thematisch-systematisches Verzeichnis der musikalischen Werke Johann Sebastian Bach: Bach-Werke-Verzeichnis (Schmieder)
!!!YOR: Bach Gesellschaft Edition xxxix
!!!ENC: Steven Rasmussen
!!!CDT: 1685/3//-1750/7/28/
!!!OCY: Deutschland
!!!YEC: Copyright (c) 1994, 2000 Center for Computer Assisted Research in the Humanities
!!!YEM: Rights to all derivative editions reserved
!!!YEN: United States of America
**kern	**silbe	**kern	**kern	**kern
*I:[SOPRANO]	*I:[SOPRANO]	*I:[ALTO]	*I:[TENORE]	*I:[BASSO]
*clefG2	*	*clefG2	*clefGv2	*clefF4
*k[f#]	*	*k[f#]	*k[f#]	*k[f#]
*e:	*	*e:	*e:	*e:
*M4/4	*	*M4/4	*M4/4	*M4/4
4b	Das?	4f#	4d#	8BL
.	.	.	.	8AJ
=1	=1	=1	=1	=1
4b	al-	4g	4e	8GL
.	.	.	.	8EJ
8aL	-te	4e	4A	4C#
8gJ	.	.	.	.
4f#	Jahr	4d	4A	4D
4b	ver-	4g	4d	8BBL
.	.	.	.	8GGJ
=2	=2	=2	=2	=2
8aL	-gan-	4f#	4d	4D
8gJ	.	.	.	.
4f#	-gen	4f#	8cL	4D#
.	.	.	8BJ	.
4g;	ist,	4e;	4B;	4E;
4b	wir	4g#	4e	8EL
.	.	.	.	8DnJ
=3	=3	=3	=3	=3
4b	dan-	4e	4e	4C
8aL	-ken	4e	4A	4C#
8gJ	.	.	.	.
4f#	dir,	8eL	4A	4D
.	.	8dJ	.	.
4b	Herr	4d	4Fn	4GG#
=4	=4	=4	=4	=4
8aL	Je-	4c	4E	4AA
8gJ	.	.	.	.
4f#	-su	8cL	4F#	4DD#
.	.	8BJ	.	.
4g;	Christ,	4B;	4E;	4EE;
4b	dass	4g	4B	4E
=5	=5	=5	=5	=5
4cc#	du	4g	4A	4AA
4dd#	uns	4f#	4B	4A
4ee	in	4e	4B	4G#
8bL	so	4e	4B	4Gn
8cc#J	.	.	.	.
=6	=6	=6	=6	=6
4dd	gro-	4f#	4B	8F#L
.	.	.	.	8EJ
4cc#	-sser	4f#	8A#L	4F#
.	.	.	8eJ	.
4b;	G'fahr	4f#;	4d;	4BB;
4cc#	be-	4f#	4c#	4AA#
=7	=7	=7	=7	=7
4dd	-h√º-	4f#	8c#L	4BB
.	.	.	8BJ	.
4cc#	-tet	4f#	8BL	4F#
.	.	.	8AJ	.
4b	hast	8f#L	4B	8GL
.	.	8dJ	.	8F#J
4b	lang'	8gL	4B	8EL
.	.	8f#J	.	8DJ
=8	=8	=8	=8	=8
8aL	Zeit	4e	8cL	4C
8gJ	.	.	8BJ	.
4f#	und	8dL	4A	4D
.	.	8cJ	.	.
4g;	Jahr;	4B;	4G;	4GG;
4a	dass	4e	4G	4C#
=9	=9	=9	=9	=9
4a	du	4d	4F#	4D
4b	uns	4d	8GL	4GG
.	.	.	8F#J	.
8aL	in	4c#	4E	4AA
8gJ	.	.	.	.
4f#	so	4d#	4B	4BB
=10	=10	=10	=10	=10
4g	gro-	4e	4B	8EEL
.	.	.	.	8FF#J
4g	-sser	4e	4B	8GGL
.	.	.	.	8AAJ
4f#;	G'fahr	(8eL	4B;	4BB;
.	.	8d;J)	.	.
4cc#	be-	4f#	4c#	4AA#
=11	=11	=11	=11	=11
4dd	-h√º-	4f#	4B	4BB
4cc#	-tet	4g	4A#	4E
4b	hast	4f#	8BL	8DL
.	.	.	8c#J	8C#J
4f#	lang'	4f#	8dL	8BBL
.	.	.	8c#J	8AAJ
=12	=12	=12	=12	=12
4b	Zeit	4f#	4B	4GG#
4b	und	4e#	4c#	4C#
4a#;	Jahr.	4f#;	4c#;	4FF#;
==|!	==|!	==|!	==|!	==|!
!!!RNB1: *) Strictly speaking, its key signature classifies this chorale
!!!RNB2: in notational "Locrian" mode!
*-	*-	*-	*-	*-
!!!RWG: Key is interpreted using the Humdrum key tool.
!!!END: 1994/05/16
!!!EMD: Converted from MuseData to Humdrum Dec 19, 2000, by Andreas Kornstaedt using muse2kern.
!!!EED: Craig Stuart Sapp
!!!EEV: 2024/03/31
!!!ONB: Some non-unicode characters
